X: 16953
T: Hawthorn Bush, The
R: strathspey
M: 4/4
K: Gmajor
|:(3DEF|G2 (3Bcd (3eee d>B|G>AB>G A>GE<F|~G2 B>d (3efg d>G|c>AD>A c>A:|
|:d>g|f<aa>g f>dA>e|f>dA>g f>d d2|1 f<aa>g f>dd>f|
e>^de>f g2:|2 b>ga>f g2 (3fed|(3Bcd e>f g2||

